X: 12329
T: Faithful Friend, The
R: hornpipe
M: 4/4
K: Dmajor
AG|:FDD/D/D DEFG|A^GAB cABc|dcde fded|cABc dcAG|
FDD/D/D DEFG|A^GAB cABc|dcde fded|1 cABc d2 AG:|2 cABc d3 g||
|:fddc dfaf|geed cdeg|fddc dfaf|gece dcdg|
fddc dfaf|geed ce e2|f3 d g3 e|1 fgec d3g:|2 fgec d3e||
|:fafd egec|dcAB =cAGB|AD D/D/D DEFG|A^GAB cAde|
[1 fafd egec|dcAB =cAGB|Addc defd|edce d3 e:|
[2 f z e/f/e d z AB|cBcA GFEA|Dddc defd|edce d3||

